; G-Code generated by Simplify3D(R) Version 4.0.0
; Nov 3, 2017 at 5:52:45 PM
; Settings Summary
;   processName,Process1
;   applyToModels,Botonera Movil V03.1
;   profileName,Anet A8 PLA 25%
;   profileVersion,2017-10-24 21:51:44
;   baseProfile,Default (modified)
;   printMaterial,
;   printQuality,
;   printExtruders,
;   extruderName,Primary Extruder
;   extruderToolheadNumber,0
;   extruderDiameter,0.4
;   extruderAutoWidth,0
;   extruderWidth,0.45
;   extrusionMultiplier,1
;   extruderUseRetract,1
;   extruderRetractionDistance,2
;   extruderExtraRestartDistance,0
;   extruderRetractionZLift,0
;   extruderRetractionSpeed,4800
;   extruderUseCoasting,0
;   extruderCoastingDistance,0.2
;   extruderUseWipe,0
;   extruderWipeDistance,5
;   primaryExtruder,0
;   layerHeight,0.3
;   topSolidLayers,3
;   bottomSolidLayers,3
;   perimeterOutlines,3
;   printPerimetersInsideOut,1
;   startPointOption,2
;   startPointOriginX,0
;   startPointOriginY,0
;   sequentialIslands,0
;   spiralVaseMode,0
;   firstLayerHeightPercentage,90
;   firstLayerWidthPercentage,100
;   firstLayerUnderspeed,0.35
;   useRaft,0
;   raftExtruder,0
;   raftTopLayers,3
;   raftBaseLayers,2
;   raftOffset,3
;   raftSeparationDistance,0.14
;   raftTopInfill,100
;   aboveRaftSpeedMultiplier,0.3
;   useSkirt,1
;   skirtExtruder,0
;   skirtLayers,1
;   skirtOutlines,3
;   skirtOffset,4
;   usePrimePillar,0
;   primePillarExtruder,999
;   primePillarWidth,12
;   primePillarLocation,7
;   primePillarSpeedMultiplier,1
;   useOozeShield,0
;   oozeShieldExtruder,999
;   oozeShieldOffset,2
;   oozeShieldOutlines,1
;   oozeShieldSidewallShape,1
;   oozeShieldSidewallAngle,30
;   oozeShieldSpeedMultiplier,1
;   infillExtruder,0
;   internalInfillPattern,Rectilinear
;   externalInfillPattern,Rectilinear
;   infillPercentage,25
;   outlineOverlapPercentage,25
;   infillExtrusionWidthPercentage,150
;   minInfillLength,5
;   infillLayerInterval,1
;   internalInfillAngles,0,60,-60
;   overlapInternalInfillAngles,0
;   externalInfillAngles,0,60,-60
;   generateSupport,1
;   supportExtruder,0
;   supportInfillPercentage,30
;   supportExtraInflation,0
;   supportBaseLayers,0
;   denseSupportExtruder,0
;   denseSupportLayers,0
;   denseSupportInfillPercentage,70
;   supportLayerInterval,1
;   supportHorizontalPartOffset,0.3
;   supportUpperSeparationLayers,1
;   supportLowerSeparationLayers,1
;   supportType,0
;   supportGridSpacing,4
;   maxOverhangAngle,45
;   supportAngles,0
;   temperatureName,Extrusor Principal,Cama Caliente
;   temperatureNumber,0,1
;   temperatureSetpointCount,1,1
;   temperatureSetpointLayers,1,1
;   temperatureSetpointTemperatures,200,60
;   temperatureStabilizeAtStartup,1,1
;   temperatureHeatedBed,0,1
;   temperatureRelayBetweenLayers,0,0
;   temperatureRelayBetweenLoops,0,0
;   fanLayers,1,2
;   fanSpeeds,0,100
;   blipFanToFullPower,0
;   adjustSpeedForCooling,1
;   minSpeedLayerTime,15
;   minCoolingSpeedSlowdown,20
;   increaseFanForCooling,0
;   minFanLayerTime,45
;   maxCoolingFanSpeed,100
;   increaseFanForBridging,0
;   bridgingFanSpeed,100
;   use5D,1
;   relativeEdistances,0
;   allowEaxisZeroing,1
;   independentExtruderAxes,0
;   includeM10123,0
;   stickySupport,1
;   applyToolheadOffsets,0
;   gcodeXoffset,0
;   gcodeYoffset,0
;   gcodeZoffset,0
;   overrideMachineDefinition,1
;   machineTypeOverride,0
;   strokeXoverride,220
;   strokeYoverride,220
;   strokeZoverride,240
;   originOffsetXoverride,0
;   originOffsetYoverride,0
;   originOffsetZoverride,0
;   homeXdirOverride,-1
;   homeYdirOverride,-1
;   homeZdirOverride,-1
;   flipXoverride,1
;   flipYoverride,-1
;   flipZoverride,1
;   toolheadOffsets,0,0|0,0|0,0|0,0|0,0|0,0
;   overrideFirmwareConfiguration,0
;   firmwareTypeOverride,RepRap (Marlin/Repetier/Sprinter)
;   GPXconfigOverride,r2
;   baudRateOverride,115200
;   overridePrinterModels,0
;   printerModelsOverride
;   startingGcode,G21; Trabajar con valores metricos,G90; actinvar posicionamiento absoluto,M82; trabajar con valores metricos en el extrusor,M107; empezar con ventilador de capa apagado.,G28 X0 Y0; Home del eje X e Y,G28 Z0; Home del eje Z,G92 E0; Poner a 0 el extrusor,G1 Z5; Levantar el extrusor antes de ir al centro, para que no roce con nada,M117 Imprimiendo; Mensaje que se muestra en pantalla,,,,,G28 ; home all axes
;   layerChangeGcode,
;   retractionGcode,
;   toolChangeGcode,
;   endingGcode,G10;,G92 Z0;,G1 Z5;,M107;,G1 X0 Y0; Mover ejes X e Y al 0,M107;,M104 S0 ; turn off extruder,M140 S0 ; turn off bed,M84 ; disable motors
;   exportFileFormat,gcode
;   celebration,0
;   celebrationSong,Random Song
;   postProcessing,
;   defaultSpeed,3600
;   outlineUnderspeed,0.4
;   solidInfillUnderspeed,0.6
;   supportUnderspeed,0.7
;   rapidXYspeed,4800
;   rapidZspeed,300
;   minBridgingArea,50
;   bridgingExtraInflation,0
;   bridgingExtrusionMultiplier,1
;   bridgingSpeedMultiplier,1
;   useFixedBridgingAngle,0
;   fixedBridgingAngle,0
;   applyBridgingToPerimeters,0
;   filamentDiameters,1.75|1.75|1.75|1.75|1.75|1.75
;   filamentPricesPerKg,46|46|46|46|46|46
;   filamentDensities,1.25|1.25|1.25|1.25|1.25|1.25
;   useMinPrintHeight,0
;   minPrintHeight,0
;   useMaxPrintHeight,0
;   maxPrintHeight,0
;   useDiaphragm,0
;   diaphragmLayerInterval,20
;   robustSlicing,1
;   mergeAllIntoSolid,0
;   onlyRetractWhenCrossingOutline,1
;   retractBetweenLayers,0
;   useRetractionMinTravel,1
;   retractionMinTravel,3
;   retractWhileWiping,0
;   onlyWipeOutlines,0
;   avoidCrossingOutline,1
;   maxMovementDetourFactor,3
;   toolChangeRetractionDistance,12
;   toolChangeExtraRestartDistance,-0.5
;   toolChangeRetractionSpeed,600
;   externalThinWallType,0
;   internalThinWallType,2
;   thinWallAllowedOverlapPercentage,25
;   singleExtrusionMinLength,1
;   singleExtrusionMinPrintingWidthPercentage,50
;   singleExtrusionMaxPrintingWidthPercentage,200
;   singleExtrusionEndpointExtension,0.2
;   horizontalSizeCompensation,0
G90
M82
M106 S0
M140 S60
M190 S60
M104 S200 T0
M109 S200 T0
G21; Trabajar con valores metricos
G90; actinvar posicionamiento absoluto
M82; trabajar con valores metricos en el extrusor
M107; empezar con ventilador de capa apagado.
G28 X0 Y0; Home del eje X e Y
G28 Z0; Home del eje Z
G92 E0; Poner a 0 el extrusor
G1 Z5; Levantar el extrusor antes de ir al centro
 para que no roce con nada
M117 Imprimiendo; Mensaje que se muestra en pantalla
G28 ; home all axes
G92 E0
G1 E-2.0000 F4800
G1 Z0.270 F300
; process Process1
; layer 1, Z = 0.270
T0
; tool H0.300 W0.450
; skirt
G1 X95.104 Y80.738 F4800
G1 E0.0000 F1440
G92 E0
G1 X95.257 Y80.569 E0.0128 F1260
G1 X95.277 Y80.549 E0.0144
G1 X95.802 Y80.028 E0.0559
G1 X95.822 Y80.008 E0.0575
G1 X95.990 Y79.857 E0.0702
G1 X96.011 Y79.839 E0.0717
G1 X96.582 Y79.375 E0.1130
G1 X96.604 Y79.358 E0.1146
G1 X96.789 Y79.223 E0.1274
G1 X96.812 Y79.207 E0.1290
G1 X97.429 Y78.801 E0.1704
G1 X97.454 Y78.785 E0.1721
G1 X97.662 Y78.663 E0.1856
G1 X97.688 Y78.649 E0.1873
G1 X98.341 Y78.311 E0.2286
G1 X98.367 Y78.299 E0.2302
G1 X98.577 Y78.204 E0.2431
G1 X98.603 Y78.192 E0.2447
G1 X99.287 Y77.922 E0.2860
G1 X99.316 Y77.912 E0.2877
G1 X99.551 Y77.833 E0.3016
G1 X99.580 Y77.825 E0.3033
G1 X100.293 Y77.629 E0.3448
G1 X100.323 Y77.622 E0.3465
G1 X100.562 Y77.570 E0.3602
G1 X100.591 Y77.564 E0.3619
G1 X101.318 Y77.447 E0.4032
G1 X101.348 Y77.443 E0.4049
G1 X101.591 Y77.417 E0.4187
G1 X101.621 Y77.414 E0.4204
G1 X102.289 Y77.379 E0.4579
G1 X102.304 Y77.378 E0.4587
G1 X102.425 Y77.375 E0.4655
G1 X102.440 Y77.375 E0.4664
G1 X117.562 Y77.375 E1.3151
G1 X117.577 Y77.375 E1.3160
G1 X117.700 Y77.379 E1.3229
G1 X117.716 Y77.379 E1.3238
G1 X118.396 Y77.416 E1.3620
G1 X118.426 Y77.418 E1.3637
G1 X118.672 Y77.445 E1.3776
G1 X118.703 Y77.449 E1.3793
G1 X119.430 Y77.569 E1.4207
G1 X119.460 Y77.574 E1.4224
G1 X119.698 Y77.627 E1.4361
G1 X119.728 Y77.634 E1.4378
G1 X120.441 Y77.831 E1.4793
G1 X120.470 Y77.840 E1.4810
G1 X120.705 Y77.919 E1.4949
G1 X120.733 Y77.929 E1.4966
G1 X121.417 Y78.201 E1.5379
G1 X121.443 Y78.212 E1.5395
G1 X121.652 Y78.308 E1.5524
G1 X121.678 Y78.320 E1.5540
G1 X122.331 Y78.659 E1.5953
G1 X122.357 Y78.674 E1.5970
G1 X122.564 Y78.796 E1.6105
G1 X122.589 Y78.812 E1.6122
G1 X123.206 Y79.219 E1.6536
G1 X123.229 Y79.236 E1.6552
G1 X123.413 Y79.371 E1.6680
G1 X123.435 Y79.388 E1.6696
G1 X124.004 Y79.853 E1.7108
G1 X124.025 Y79.871 E1.7124
G1 X124.190 Y80.020 E1.7249
G1 X124.210 Y80.039 E1.7265
G1 X124.731 Y80.556 E1.7676
G1 X124.750 Y80.577 E1.7692
G1 X124.903 Y80.745 E1.7820
G1 X124.922 Y80.766 E1.7836
G1 X125.393 Y81.339 E1.8252
G1 X125.409 Y81.360 E1.8267
G1 X125.540 Y81.536 E1.8390
G1 X125.556 Y81.558 E1.8405
G1 X125.968 Y82.170 E1.8819
G1 X125.982 Y82.192 E1.8834
G1 X126.091 Y82.372 E1.8952
G1 X126.104 Y82.394 E1.8966
G1 X126.460 Y83.045 E1.9383
G1 X126.472 Y83.069 E1.9398
G1 X126.567 Y83.265 E1.9520
G1 X126.578 Y83.289 E1.9535
G1 X126.870 Y83.970 E1.9951
G1 X126.879 Y83.994 E1.9965
G1 X126.951 Y84.183 E2.0079
G1 X126.959 Y84.207 E2.0093
G1 X127.190 Y84.912 E2.0510
G1 X127.197 Y84.938 E2.0524
G1 X127.254 Y85.143 E2.0644
G1 X127.260 Y85.169 E2.0659
G1 X127.426 Y85.901 E2.1080
G1 X127.431 Y85.925 E2.1094
G1 X127.466 Y86.123 E2.1207
G1 X127.470 Y86.148 E2.1221
G1 X127.569 Y86.877 E2.1634
G1 X127.571 Y86.902 E2.1648
G1 X127.590 Y87.106 E2.1763
G1 X127.591 Y87.131 E2.1777
G1 X127.622 Y87.823 E2.2166
G1 X127.623 Y87.835 E2.2173
G1 X127.625 Y87.937 E2.2230
G1 X127.625 Y87.949 E2.2237
G1 X127.625 Y100.899 E2.9505
G1 X127.454 Y101.312 E2.9756
G1 X127.345 Y101.421 E2.9842
G1 X127.345 Y118.578 E3.9472
G1 X127.454 Y118.687 E3.9558
G1 X127.625 Y119.100 E3.9809
G1 X127.625 Y132.052 E4.7079
G1 X127.625 Y132.065 E4.7086
G1 X127.623 Y132.168 E4.7144
G1 X127.622 Y132.181 E4.7151
G1 X127.590 Y132.879 E4.7543
G1 X127.589 Y132.903 E4.7557
G1 X127.570 Y133.105 E4.7671
G1 X127.568 Y133.130 E4.7685
G1 X127.469 Y133.859 E4.8098
G1 X127.465 Y133.883 E4.8112
G1 X127.429 Y134.083 E4.8226
G1 X127.424 Y134.108 E4.8240
G1 X127.259 Y134.834 E4.8657
G1 X127.253 Y134.859 E4.8672
G1 X127.197 Y135.063 E4.8791
G1 X127.189 Y135.088 E4.8805
G1 X126.959 Y135.792 E4.9221
G1 X126.951 Y135.816 E4.9235
G1 X126.879 Y136.005 E4.9349
G1 X126.870 Y136.029 E4.9363
G1 X126.578 Y136.710 E4.9779
G1 X126.567 Y136.734 E4.9794
G1 X126.472 Y136.930 E4.9916
G1 X126.460 Y136.954 E4.9931
G1 X126.103 Y137.606 E5.0348
G1 X126.090 Y137.628 E5.0363
G1 X125.980 Y137.810 E5.0482
G1 X125.966 Y137.832 E5.0497
G1 X125.550 Y138.448 E5.0914
G1 X125.535 Y138.470 E5.0929
G1 X125.405 Y138.644 E5.1051
G1 X125.389 Y138.665 E5.1066
G1 X124.922 Y139.233 E5.1478
G1 X124.903 Y139.254 E5.1494
G1 X124.750 Y139.422 E5.1622
G1 X124.731 Y139.443 E5.1638
G1 X124.206 Y139.965 E5.2053
G1 X124.186 Y139.984 E5.2069
G1 X124.018 Y140.135 E5.2195
G1 X123.997 Y140.153 E5.2211
G1 X123.428 Y140.616 E5.2623
G1 X123.406 Y140.633 E5.2638
G1 X123.225 Y140.766 E5.2764
G1 X123.203 Y140.782 E5.2780
G1 X122.583 Y141.192 E5.3197
G1 X122.557 Y141.209 E5.3214
G1 X122.340 Y141.336 E5.3355
G1 X122.313 Y141.351 E5.3373
G1 X121.652 Y141.691 E5.3790
G1 X121.627 Y141.703 E5.3805
G1 X121.421 Y141.796 E5.3932
G1 X121.396 Y141.807 E5.3948
G1 X120.714 Y142.076 E5.4359
G1 X120.686 Y142.087 E5.4376
G1 X120.453 Y142.164 E5.4514
G1 X120.424 Y142.173 E5.4531
G1 X119.717 Y142.368 E5.4942
G1 X119.688 Y142.375 E5.4959
G1 X119.449 Y142.427 E5.5096
G1 X119.420 Y142.433 E5.5113
G1 X118.694 Y142.551 E5.5526
G1 X118.664 Y142.555 E5.5543
G1 X118.423 Y142.581 E5.5679
G1 X118.393 Y142.584 E5.5696
G1 X117.719 Y142.621 E5.6075
G1 X117.704 Y142.621 E5.6083
G1 X117.578 Y142.625 E5.6154
G1 X117.563 Y142.625 E5.6162
G1 X102.437 Y142.625 E6.4652
G1 X102.422 Y142.625 E6.4661
G1 X102.296 Y142.621 E6.4731
G1 X102.281 Y142.621 E6.4740
G1 X101.607 Y142.584 E6.5119
G1 X101.577 Y142.581 E6.5135
G1 X101.336 Y142.555 E6.5272
G1 X101.306 Y142.551 E6.5288
G1 X100.580 Y142.433 E6.5701
G1 X100.551 Y142.427 E6.5718
G1 X100.312 Y142.375 E6.5855
G1 X100.283 Y142.368 E6.5872
G1 X99.570 Y142.171 E6.6287
G1 X99.540 Y142.163 E6.6304
G1 X99.305 Y142.084 E6.6443
G1 X99.277 Y142.073 E6.6461
G1 X98.593 Y141.803 E6.6873
G1 X98.567 Y141.792 E6.6889
G1 X98.359 Y141.697 E6.7017
G1 X98.334 Y141.685 E6.7033
G1 X97.675 Y141.344 E6.7450
G1 X97.648 Y141.329 E6.7467
G1 X97.436 Y141.204 E6.7605
G1 X97.410 Y141.188 E6.7622
G1 X96.797 Y140.782 E6.8035
G1 X96.775 Y140.766 E6.8050
G1 X96.594 Y140.633 E6.8176
G1 X96.572 Y140.616 E6.8192
G1 X96.002 Y140.152 E6.8604
G1 X95.981 Y140.134 E6.8620
G1 X95.812 Y139.981 E6.8748
G1 X95.791 Y139.962 E6.8764
G1 X95.262 Y139.435 E6.9183
G1 X95.243 Y139.414 E6.9198
G1 X95.090 Y139.246 E6.9326
G1 X95.071 Y139.224 E6.9342
G1 X94.601 Y138.651 E6.9758
G1 X94.584 Y138.630 E6.9773
G1 X94.454 Y138.454 E6.9896
G1 X94.438 Y138.432 E6.9911
G1 X94.027 Y137.820 E7.0326
G1 X94.013 Y137.798 E7.0340
G1 X93.904 Y137.618 E7.0458
G1 X93.891 Y137.596 E7.0473
G1 X93.536 Y136.944 E7.0889
G1 X93.524 Y136.921 E7.0904
G1 X93.429 Y136.725 E7.1026
G1 X93.418 Y136.700 E7.1041
G1 X93.126 Y136.019 E7.1457
G1 X93.117 Y135.996 E7.1471
G1 X93.046 Y135.806 E7.1585
G1 X93.038 Y135.782 E7.1599
G1 X92.808 Y135.077 E7.2015
G1 X92.801 Y135.052 E7.2030
G1 X92.745 Y134.849 E7.2148
G1 X92.738 Y134.824 E7.2163
G1 X92.574 Y134.099 E7.2580
G1 X92.569 Y134.074 E7.2594
G1 X92.534 Y133.877 E7.2707
G1 X92.530 Y133.852 E7.2720
G1 X92.431 Y133.124 E7.3133
G1 X92.429 Y133.098 E7.3147
G1 X92.410 Y132.894 E7.3262
G1 X92.409 Y132.869 E7.3276
G1 X92.378 Y132.177 E7.3665
G1 X92.377 Y132.165 E7.3672
G1 X92.375 Y132.063 E7.3729
G1 X92.375 Y132.051 E7.3736
G1 X92.375 Y119.100 E8.1005
G1 X92.546 Y118.687 E8.1256
G1 X92.655 Y118.578 E8.1343
G1 X92.655 Y101.421 E9.0972
G1 X92.546 Y101.312 E9.1058
G1 X92.375 Y100.899 E9.1309
G1 X92.375 Y87.948 E9.8578
G1 X92.375 Y87.935 E9.8585
G1 X92.377 Y87.832 E9.8644
G1 X92.378 Y87.819 E9.8651
G1 X92.410 Y87.122 E9.9042
G1 X92.411 Y87.097 E9.9056
G1 X92.429 Y86.896 E9.9170
G1 X92.432 Y86.871 E9.9184
G1 X92.531 Y86.140 E9.9598
G1 X92.535 Y86.115 E9.9612
G1 X92.571 Y85.913 E9.9728
G1 X92.576 Y85.888 E9.9742
G1 X92.743 Y85.155 E10.0163
G1 X92.750 Y85.130 E10.0178
G1 X92.806 Y84.927 E10.0297
G1 X92.814 Y84.902 E10.0311
G1 X93.045 Y84.197 E10.0727
G1 X93.053 Y84.174 E10.0741
G1 X93.125 Y83.984 E10.0855
G1 X93.134 Y83.961 E10.0869
G1 X93.426 Y83.280 E10.1285
G1 X93.438 Y83.255 E10.1300
G1 X93.533 Y83.060 E10.1422
G1 X93.545 Y83.036 E10.1437
G1 X93.901 Y82.386 E10.1853
G1 X93.914 Y82.364 E10.1867
G1 X94.022 Y82.187 E10.1984
G1 X94.036 Y82.165 E10.1998
G1 X94.445 Y81.557 E10.2410
G1 X94.460 Y81.535 E10.2425
G1 X94.593 Y81.357 E10.2549
G1 X94.610 Y81.336 E10.2565
G1 X95.085 Y80.759 E10.2984
G1 X95.104 Y80.738 E10.3000
G1 X95.440 Y81.037 F4800
G92 E0
G1 X95.586 Y80.877 E0.0122 F1260
G1 X95.598 Y80.864 E0.0131
G1 X96.115 Y80.351 E0.0540
G1 X96.127 Y80.339 E0.0550
G1 X96.287 Y80.196 E0.0670
G1 X96.300 Y80.185 E0.0679
G1 X96.862 Y79.728 E0.1086
G1 X96.875 Y79.718 E0.1095
G1 X97.050 Y79.589 E0.1217
G1 X97.064 Y79.580 E0.1227
G1 X97.671 Y79.180 E0.1635
G1 X97.687 Y79.170 E0.1645
G1 X97.884 Y79.054 E0.1774
G1 X97.900 Y79.046 E0.1784
G1 X98.543 Y78.714 E0.2190
G1 X98.558 Y78.706 E0.2199
G1 X98.758 Y78.616 E0.2322
G1 X98.773 Y78.609 E0.2332
G1 X99.447 Y78.343 E0.2738
G1 X99.464 Y78.337 E0.2749
G1 X99.687 Y78.262 E0.2881
G1 X99.705 Y78.257 E0.2891
G1 X100.407 Y78.065 E0.3299
G1 X100.424 Y78.060 E0.3310
G1 X100.651 Y78.011 E0.3440
G1 X100.669 Y78.008 E0.3450
G1 X101.384 Y77.892 E0.3856
G1 X101.402 Y77.890 E0.3867
G1 X101.633 Y77.865 E0.3997
G1 X101.651 Y77.863 E0.4007
G1 X102.310 Y77.829 E0.4378
G1 X102.319 Y77.828 E0.4383
G1 X102.434 Y77.825 E0.4447
G1 X102.443 Y77.825 E0.4452
G1 X117.559 Y77.825 E1.2936
G1 X117.568 Y77.825 E1.2941
G1 X117.685 Y77.828 E1.3007
G1 X117.694 Y77.829 E1.3012
G1 X118.365 Y77.865 E1.3390
G1 X118.384 Y77.867 E1.3400
G1 X118.618 Y77.892 E1.3532
G1 X118.636 Y77.894 E1.3542
G1 X119.351 Y78.012 E1.3949
G1 X119.369 Y78.015 E1.3959
G1 X119.596 Y78.065 E1.4090
G1 X119.613 Y78.069 E1.4100
G1 X120.315 Y78.263 E1.4508
G1 X120.332 Y78.269 E1.4519
G1 X120.556 Y78.344 E1.4651
G1 X120.573 Y78.350 E1.4661
