; G-Code generated by Simplify3D(R) Version 4.0.0
; Nov 2, 2017 at 6:54:57 PM
; Settings Summary
;   processName,Process1
;   applyToModels,Botonera Movil V02.1
;   profileName,Anet A8 PLA 15%
;   profileVersion,2017-10-22 18:59:54
;   baseProfile,Default (modified)
;   printMaterial,
;   printQuality,
;   printExtruders,
;   extruderName,Primary Extruder
;   extruderToolheadNumber,0
;   extruderDiameter,0.4
;   extruderAutoWidth,0
;   extruderWidth,0.45
;   extrusionMultiplier,1
;   extruderUseRetract,1
;   extruderRetractionDistance,2
;   extruderExtraRestartDistance,0
;   extruderRetractionZLift,0
;   extruderRetractionSpeed,4800
;   extruderUseCoasting,0
;   extruderCoastingDistance,0.2
;   extruderUseWipe,0
;   extruderWipeDistance,5
;   primaryExtruder,0
;   layerHeight,0.3
;   topSolidLayers,3
;   bottomSolidLayers,3
;   perimeterOutlines,3
;   printPerimetersInsideOut,1
;   startPointOption,2
;   startPointOriginX,0
;   startPointOriginY,0
;   sequentialIslands,0
;   spiralVaseMode,0
;   firstLayerHeightPercentage,90
;   firstLayerWidthPercentage,100
;   firstLayerUnderspeed,0.35
;   useRaft,0
;   raftExtruder,0
;   raftTopLayers,3
;   raftBaseLayers,2
;   raftOffset,3
;   raftSeparationDistance,0.14
;   raftTopInfill,100
;   aboveRaftSpeedMultiplier,0.3
;   useSkirt,1
;   skirtExtruder,0
;   skirtLayers,1
;   skirtOutlines,3
;   skirtOffset,4
;   usePrimePillar,0
;   primePillarExtruder,999
;   primePillarWidth,12
;   primePillarLocation,7
;   primePillarSpeedMultiplier,1
;   useOozeShield,0
;   oozeShieldExtruder,999
;   oozeShieldOffset,2
;   oozeShieldOutlines,1
;   oozeShieldSidewallShape,1
;   oozeShieldSidewallAngle,30
;   oozeShieldSpeedMultiplier,1
;   infillExtruder,0
;   internalInfillPattern,Rectilinear
;   externalInfillPattern,Rectilinear
;   infillPercentage,15
;   outlineOverlapPercentage,25
;   infillExtrusionWidthPercentage,150
;   minInfillLength,5
;   infillLayerInterval,1
;   internalInfillAngles,0,60,-60
;   overlapInternalInfillAngles,0
;   externalInfillAngles,0,60,-60
;   generateSupport,1
;   supportExtruder,0
;   supportInfillPercentage,40
;   supportExtraInflation,0
;   supportBaseLayers,0
;   denseSupportExtruder,0
;   denseSupportLayers,0
;   denseSupportInfillPercentage,70
;   supportLayerInterval,1
;   supportHorizontalPartOffset,0.3
;   supportUpperSeparationLayers,1
;   supportLowerSeparationLayers,1
;   supportType,0
;   supportGridSpacing,4
;   maxOverhangAngle,45
;   supportAngles,0
;   temperatureName,Extrusor Principal,Cama Caliente
;   temperatureNumber,0,1
;   temperatureSetpointCount,1,1
;   temperatureSetpointLayers,1,1
;   temperatureSetpointTemperatures,200,60
;   temperatureStabilizeAtStartup,1,1
;   temperatureHeatedBed,0,1
;   temperatureRelayBetweenLayers,0,0
;   temperatureRelayBetweenLoops,0,0
;   fanLayers,1,2
;   fanSpeeds,0,100
;   blipFanToFullPower,0
;   adjustSpeedForCooling,1
;   minSpeedLayerTime,15
;   minCoolingSpeedSlowdown,20
;   increaseFanForCooling,0
;   minFanLayerTime,45
;   maxCoolingFanSpeed,100
;   increaseFanForBridging,0
;   bridgingFanSpeed,100
;   use5D,1
;   relativeEdistances,0
;   allowEaxisZeroing,1
;   independentExtruderAxes,0
;   includeM10123,0
;   stickySupport,1
;   applyToolheadOffsets,0
;   gcodeXoffset,0
;   gcodeYoffset,0
;   gcodeZoffset,0
;   overrideMachineDefinition,1
;   machineTypeOverride,0
;   strokeXoverride,220
;   strokeYoverride,220
;   strokeZoverride,240
;   originOffsetXoverride,0
;   originOffsetYoverride,0
;   originOffsetZoverride,0
;   homeXdirOverride,-1
;   homeYdirOverride,-1
;   homeZdirOverride,-1
;   flipXoverride,1
;   flipYoverride,-1
;   flipZoverride,1
;   toolheadOffsets,0,0|0,0|0,0|0,0|0,0|0,0
;   overrideFirmwareConfiguration,0
;   firmwareTypeOverride,RepRap (Marlin/Repetier/Sprinter)
;   GPXconfigOverride,r2
;   baudRateOverride,115200
;   overridePrinterModels,0
;   printerModelsOverride
;   startingGcode,G21; Trabajar con valores metricos,G90; actinvar posicionamiento absoluto,M82; trabajar con valores metricos en el extrusor,M107; empezar con ventilador de capa apagado.,G28 X0 Y0; Home del eje X e Y,G28 Z0; Home del eje Z,G92 E0; Poner a 0 el extrusor,G1 Z5; Levantar el extrusor antes de ir al centro, para que no roce con nada,M117 Imprimiendo; Mensaje que se muestra en pantalla,,,,,G28 ; home all axes
;   layerChangeGcode,
;   retractionGcode,
;   toolChangeGcode,
;   endingGcode,G10;,G92 Z0;,G1 Z5;,M107;,G1 X0 Y0; Mover ejes X e Y al 0,M107;,M104 S0 ; turn off extruder,M140 S0 ; turn off bed,M84 ; disable motors
;   exportFileFormat,gcode
;   celebration,0
;   celebrationSong,Random Song
;   postProcessing,
;   defaultSpeed,3600
;   outlineUnderspeed,0.4
;   solidInfillUnderspeed,0.6
;   supportUnderspeed,0.7
;   rapidXYspeed,4800
;   rapidZspeed,300
;   minBridgingArea,50
;   bridgingExtraInflation,0
;   bridgingExtrusionMultiplier,1
;   bridgingSpeedMultiplier,1
;   useFixedBridgingAngle,0
;   fixedBridgingAngle,0
;   applyBridgingToPerimeters,0
;   filamentDiameters,1.75|1.75|1.75|1.75|1.75|1.75
;   filamentPricesPerKg,46|46|46|46|46|46
;   filamentDensities,1.25|1.25|1.25|1.25|1.25|1.25
;   useMinPrintHeight,0
;   minPrintHeight,0
;   useMaxPrintHeight,0
;   maxPrintHeight,0
;   useDiaphragm,0
;   diaphragmLayerInterval,20
;   robustSlicing,1
;   mergeAllIntoSolid,0
;   onlyRetractWhenCrossingOutline,1
;   retractBetweenLayers,0
;   useRetractionMinTravel,1
;   retractionMinTravel,3
;   retractWhileWiping,0
;   onlyWipeOutlines,0
;   avoidCrossingOutline,1
;   maxMovementDetourFactor,3
;   toolChangeRetractionDistance,12
;   toolChangeExtraRestartDistance,-0.5
;   toolChangeRetractionSpeed,600
;   externalThinWallType,0
;   internalThinWallType,2
;   thinWallAllowedOverlapPercentage,25
;   singleExtrusionMinLength,1
;   singleExtrusionMinPrintingWidthPercentage,50
;   singleExtrusionMaxPrintingWidthPercentage,200
;   singleExtrusionEndpointExtension,0.2
;   horizontalSizeCompensation,0
G90
M82
M106 S0
M140 S60
M190 S60
M104 S200 T0
M109 S200 T0
G21; Trabajar con valores metricos
G90; actinvar posicionamiento absoluto
M82; trabajar con valores metricos en el extrusor
M107; empezar con ventilador de capa apagado.
G28 X0 Y0; Home del eje X e Y
G28 Z0; Home del eje Z
G92 E0; Poner a 0 el extrusor
G1 Z5; Levantar el extrusor antes de ir al centro
 para que no roce con nada
M117 Imprimiendo; Mensaje que se muestra en pantalla
G28 ; home all axes
G92 E0
G1 E-2.0000 F4800
G1 Z0.270 F300
; process Process1
; layer 1, Z = 0.270
T0
; tool H0.300 W0.450
; skirt
G1 X95.096 Y80.746 F4800
G1 E0.0000 F1440
G92 E0
G1 X95.251 Y80.576 E0.0129 F1260
G1 X95.270 Y80.555 E0.0145
G1 X95.794 Y80.034 E0.0560
G1 X95.814 Y80.015 E0.0575
G1 X95.982 Y79.864 E0.0702
G1 X96.003 Y79.846 E0.0718
G1 X96.571 Y79.384 E0.1128
G1 X96.593 Y79.367 E0.1144
G1 X96.776 Y79.232 E0.1272
G1 X96.799 Y79.216 E0.1287
G1 X97.418 Y78.807 E0.1704
G1 X97.443 Y78.791 E0.1721
G1 X97.652 Y78.669 E0.1857
G1 X97.678 Y78.654 E0.1873
G1 X98.329 Y78.317 E0.2285
G1 X98.354 Y78.305 E0.2300
G1 X98.562 Y78.210 E0.2429
G1 X98.588 Y78.199 E0.2445
G1 X99.277 Y77.926 E0.2860
G1 X99.306 Y77.915 E0.2878
G1 X99.546 Y77.835 E0.3020
G1 X99.576 Y77.825 E0.3038
G1 X100.285 Y77.632 E0.3450
G1 X100.313 Y77.625 E0.3466
G1 X100.541 Y77.575 E0.3598
G1 X100.570 Y77.570 E0.3614
G1 X101.294 Y77.450 E0.4026
G1 X101.325 Y77.445 E0.4043
G1 X101.576 Y77.418 E0.4185
G1 X101.606 Y77.416 E0.4202
G1 X102.283 Y77.379 E0.4583
G1 X102.298 Y77.379 E0.4591
G1 X102.421 Y77.375 E0.4660
G1 X102.436 Y77.375 E0.4668
G1 X117.560 Y77.375 E1.3157
G1 X117.575 Y77.375 E1.3166
G1 X117.696 Y77.378 E1.3233
G1 X117.711 Y77.379 E1.3242
G1 X118.387 Y77.415 E1.3622
G1 X118.418 Y77.417 E1.3639
G1 X118.669 Y77.445 E1.3781
G1 X118.700 Y77.449 E1.3798
G1 X119.422 Y77.568 E1.4209
G1 X119.450 Y77.573 E1.4225
G1 X119.678 Y77.623 E1.4356
G1 X119.706 Y77.630 E1.4373
G1 X120.417 Y77.824 E1.4786
G1 X120.447 Y77.833 E1.4803
G1 X120.686 Y77.912 E1.4945
G1 X120.715 Y77.923 E1.4962
G1 X121.405 Y78.195 E1.5379
G1 X121.431 Y78.207 E1.5395
G1 X121.642 Y78.303 E1.5525
G1 X121.668 Y78.315 E1.5541
G1 X122.318 Y78.652 E1.5952
G1 X122.344 Y78.666 E1.5968
G1 X122.551 Y78.788 E1.6103
G1 X122.576 Y78.803 E1.6119
G1 X123.192 Y79.210 E1.6534
G1 X123.215 Y79.226 E1.6550
G1 X123.399 Y79.361 E1.6678
G1 X123.422 Y79.378 E1.6694
G1 X123.992 Y79.842 E1.7106
G1 X124.013 Y79.860 E1.7122
G1 X124.181 Y80.011 E1.7249
G1 X124.201 Y80.031 E1.7264
G1 X124.730 Y80.556 E1.7683
G1 X124.750 Y80.576 E1.7699
G1 X124.906 Y80.748 E1.7829
G1 X124.925 Y80.770 E1.7845
G1 X125.395 Y81.343 E1.8261
G1 X125.411 Y81.364 E1.8276
G1 X125.539 Y81.535 E1.8396
G1 X125.554 Y81.557 E1.8411
G1 X125.963 Y82.164 E1.8822
G1 X125.978 Y82.186 E1.8836
G1 X126.087 Y82.366 E1.8955
G1 X126.101 Y82.389 E1.8970
G1 X126.459 Y83.044 E1.9389
G1 X126.471 Y83.068 E1.9404
G1 X126.568 Y83.267 E1.9528
G1 X126.579 Y83.291 E1.9543
G1 X126.871 Y83.974 E1.9960
G1 X126.880 Y83.997 E1.9974
G1 X126.951 Y84.185 E2.0087
G1 X126.959 Y84.209 E2.0100
G1 X127.189 Y84.912 E2.0516
G1 X127.197 Y84.937 E2.0530
G1 X127.253 Y85.139 E2.0648
G1 X127.259 Y85.165 E2.0663
G1 X127.424 Y85.890 E2.1080
G1 X127.429 Y85.915 E2.1095
G1 X127.465 Y86.116 E2.1209
G1 X127.469 Y86.141 E2.1224
G1 X127.568 Y86.874 E2.1639
G1 X127.571 Y86.899 E2.1653
G1 X127.589 Y87.101 E2.1767
G1 X127.591 Y87.126 E2.1781
G1 X127.622 Y87.817 E2.2169
G1 X127.622 Y87.830 E2.2176
G1 X127.625 Y87.933 E2.2234
G1 X127.625 Y87.945 E2.2241
G1 X127.625 Y132.051 E4.6996
G1 X127.625 Y132.063 E4.7003
G1 X127.623 Y132.165 E4.7060
G1 X127.622 Y132.177 E4.7067
G1 X127.592 Y132.866 E4.7454
G1 X127.590 Y132.891 E4.7468
G1 X127.572 Y133.093 E4.7582
G1 X127.569 Y133.118 E4.7596
G1 X127.470 Y133.853 E4.8012
G1 X127.466 Y133.878 E4.8026
G1 X127.430 Y134.078 E4.8140
G1 X127.425 Y134.102 E4.8154
G1 X127.261 Y134.828 E4.8572
G1 X127.254 Y134.853 E4.8587
G1 X127.198 Y135.057 E4.8705
G1 X127.191 Y135.082 E4.8720
G1 X126.960 Y135.789 E4.9137
G1 X126.952 Y135.813 E4.9151
G1 X126.881 Y136.002 E4.9265
G1 X126.871 Y136.025 E4.9279
G1 X126.579 Y136.708 E4.9696
G1 X126.568 Y136.733 E4.9711
G1 X126.472 Y136.930 E4.9834
G1 X126.460 Y136.954 E4.9849
G1 X126.105 Y137.604 E5.0265
G1 X126.092 Y137.626 E5.0279
G1 X125.982 Y137.807 E5.0398
G1 X125.968 Y137.829 E5.0412
G1 X125.558 Y138.438 E5.0825
G1 X125.542 Y138.460 E5.0840
G1 X125.415 Y138.632 E5.0960
G1 X125.398 Y138.652 E5.0975
G1 X124.926 Y139.228 E5.1393
G1 X124.908 Y139.250 E5.1409
G1 X124.752 Y139.421 E5.1539
G1 X124.732 Y139.442 E5.1555
G1 X124.206 Y139.966 E5.1971
G1 X124.186 Y139.985 E5.1987
G1 X124.018 Y140.136 E5.2114
G1 X123.997 Y140.154 E5.2129
G1 X123.427 Y140.618 E5.2542
G1 X123.404 Y140.636 E5.2558
G1 X123.220 Y140.771 E5.2686
G1 X123.197 Y140.787 E5.2702
G1 X122.581 Y141.194 E5.3117
G1 X122.555 Y141.210 E5.3133
G1 X122.347 Y141.332 E5.3269
G1 X122.321 Y141.346 E5.3285
G1 X121.670 Y141.684 E5.3697
G1 X121.644 Y141.696 E5.3713
G1 X121.432 Y141.793 E5.3844
G1 X121.405 Y141.804 E5.3860
G1 X120.718 Y142.075 E5.4275
G1 X120.690 Y142.085 E5.4292
G1 X120.458 Y142.163 E5.4429
G1 X120.429 Y142.172 E5.4446
G1 X119.723 Y142.366 E5.4857
G1 X119.694 Y142.373 E5.4874
G1 X119.461 Y142.424 E5.5007
G1 X119.432 Y142.430 E5.5024
G1 X118.702 Y142.551 E5.5439
G1 X118.671 Y142.555 E5.5457
G1 X118.419 Y142.583 E5.5599
G1 X118.388 Y142.585 E5.5617
G1 X117.711 Y142.621 E5.5997
G1 X117.697 Y142.622 E5.6005
G1 X117.576 Y142.625 E5.6073
G1 X117.561 Y142.625 E5.6082
G1 X102.439 Y142.625 E6.4569
G1 X102.424 Y142.625 E6.4577
G1 X102.304 Y142.622 E6.4645
G1 X102.289 Y142.621 E6.4653
G1 X101.616 Y142.585 E6.5031
G1 X101.585 Y142.583 E6.5049
G1 X101.336 Y142.556 E6.5189
G1 X101.306 Y142.552 E6.5207
G1 X100.575 Y142.432 E6.5622
G1 X100.546 Y142.426 E6.5639
G1 X100.310 Y142.374 E6.5774
G1 X100.282 Y142.367 E6.5791
G1 X99.572 Y142.172 E6.6204
G1 X99.543 Y142.163 E6.6221
G1 X99.312 Y142.086 E6.6358
G1 X99.284 Y142.076 E6.6375
G1 X98.603 Y141.808 E6.6785
G1 X98.576 Y141.796 E6.6801
G1 X98.364 Y141.700 E6.6932
G1 X98.338 Y141.688 E6.6948
G1 X97.684 Y141.349 E6.7362
G1 X97.658 Y141.335 E6.7379
G1 X97.450 Y141.213 E6.7514
G1 X97.425 Y141.197 E6.7530
G1 X96.805 Y140.788 E6.7947
G1 X96.781 Y140.772 E6.7963
G1 X96.596 Y140.636 E6.8092
G1 X96.574 Y140.619 E6.8108
G1 X96.006 Y140.156 E6.8519
G1 X95.985 Y140.138 E6.8535
G1 X95.818 Y139.988 E6.8661
G1 X95.798 Y139.969 E6.8676
G1 X95.270 Y139.444 E6.9094
G1 X95.250 Y139.424 E6.9110
G1 X95.094 Y139.252 E6.9240
G1 X95.075 Y139.230 E6.9256
G1 X94.607 Y138.660 E6.9671
G1 X94.591 Y138.639 E6.9685
G1 X94.464 Y138.469 E6.9805
G1 X94.449 Y138.447 E6.9819
G1 X94.038 Y137.838 E7.0232
G1 X94.023 Y137.816 E7.0247
G1 X93.913 Y137.634 E7.0366
G1 X93.900 Y137.612 E7.0381
G1 X93.541 Y136.956 E7.0800
G1 X93.528 Y136.932 E7.0815
G1 X93.432 Y136.733 E7.0939
G1 X93.421 Y136.709 E7.0955
G1 X93.130 Y136.029 E7.1369
G1 X93.121 Y136.006 E7.1383
G1 X93.051 Y135.819 E7.1495
G1 X93.043 Y135.796 E7.1509
G1 X92.812 Y135.093 E7.1924
G1 X92.805 Y135.068 E7.1939
G1 X92.749 Y134.865 E7.2057
G1 X92.742 Y134.840 E7.2072
G1 X92.577 Y134.114 E7.2490
G1 X92.572 Y134.089 E7.2504
G1 X92.536 Y133.889 E7.2618
G1 X92.532 Y133.864 E7.2632
G1 X92.432 Y133.129 E7.3048
G1 X92.429 Y133.104 E7.3062
G1 X92.411 Y132.900 E7.3177
G1 X92.409 Y132.875 E7.3192
G1 X92.378 Y132.183 E7.3581
G1 X92.378 Y132.170 E7.3588
G1 X92.375 Y132.067 E7.3645
G1 X92.375 Y132.055 E7.3653
G1 X92.375 Y87.949 E9.8407
G1 X92.375 Y87.937 E9.8414
G1 X92.377 Y87.835 E9.8471
G1 X92.378 Y87.823 E9.8478
G1 X92.408 Y87.135 E9.8865
G1 X92.410 Y87.110 E9.8879
G1 X92.428 Y86.908 E9.8993
G1 X92.431 Y86.883 E9.9007
G1 X92.530 Y86.143 E9.9426
G1 X92.534 Y86.118 E9.9440
G1 X92.571 Y85.915 E9.9556
G1 X92.576 Y85.890 E9.9570
G1 X92.741 Y85.165 E9.9988
G1 X92.747 Y85.139 E10.0002
G1 X92.803 Y84.937 E10.0120
G1 X92.811 Y84.912 E10.0135
G1 X93.040 Y84.212 E10.0548
G1 X93.048 Y84.189 E10.0562
G1 X93.118 Y84.002 E10.0674
G1 X93.127 Y83.979 E10.0688
G1 X93.420 Y83.294 E10.1106
G1 X93.431 Y83.269 E10.1121
G1 X93.527 Y83.070 E10.1245
G1 X93.540 Y83.046 E10.1260
G1 X93.895 Y82.396 E10.1676
G1 X93.908 Y82.374 E10.1691
G1 X94.018 Y82.193 E10.1809
G1 X94.032 Y82.171 E10.1824
G1 X94.443 Y81.561 E10.2237
G1 X94.458 Y81.539 E10.2252
G1 X94.587 Y81.367 E10.2373
G1 X94.603 Y81.346 E10.2387
G1 X95.077 Y80.768 E10.2807
G1 X95.096 Y80.746 E10.2823
G1 X95.433 Y81.045 F4800
G92 E0
G1 X95.580 Y80.883 E0.0123 F1260
G1 X95.592 Y80.870 E0.0133
G1 X96.108 Y80.357 E0.0541
G1 X96.120 Y80.346 E0.0550
G1 X96.279 Y80.202 E0.0671
G1 X96.292 Y80.191 E0.0680
G1 X96.850 Y79.736 E0.1084
G1 X96.864 Y79.726 E0.1094
G1 X97.038 Y79.598 E0.1215
G1 X97.051 Y79.589 E0.1224
G1 X97.661 Y79.186 E0.1634
G1 X97.676 Y79.176 E0.1644
G1 X97.875 Y79.060 E0.1774
G1 X97.890 Y79.051 E0.1784
G1 X98.531 Y78.719 E0.2188
G1 X98.546 Y78.712 E0.2198
G1 X98.744 Y78.622 E0.2320
G1 X98.759 Y78.615 E0.2330
G1 X99.437 Y78.346 E0.2739
G1 X99.454 Y78.340 E0.2749
G1 X99.683 Y78.263 E0.2885
G1 X99.701 Y78.258 E0.2895
G1 X100.398 Y78.068 E0.3300
G1 X100.415 Y78.063 E0.3310
G1 X100.632 Y78.016 E0.3435
G1 X100.649 Y78.013 E0.3445
G1 X101.362 Y77.895 E0.3850
G1 X101.380 Y77.892 E0.3861
G1 X101.618 Y77.866 E0.3995
G1 X101.637 Y77.865 E0.4006
G1 X102.304 Y77.829 E0.4381
G1 X102.314 Y77.828 E0.4386
G1 X102.430 Y77.825 E0.4451
G1 X102.439 Y77.825 E0.4456
G1 X117.557 Y77.825 E1.2942
G1 X117.566 Y77.825 E1.2947
G1 X117.681 Y77.828 E1.3011
G1 X117.690 Y77.829 E1.3016
G1 X118.357 Y77.864 E1.3391
G1 X118.376 Y77.865 E1.3402
G1 X118.614 Y77.891 E1.3536
G1 X118.633 Y77.894 E1.3547
G1 X119.343 Y78.011 E1.3951
G1 X119.360 Y78.014 E1.3960
G1 X119.577 Y78.062 E1.4085
G1 X119.594 Y78.066 E1.4095
G1 X120.293 Y78.256 E1.4502
G1 X120.311 Y78.262 E1.4512
G1 X120.538 Y78.337 E1.4647
G1 X120.556 Y78.344 E1.4657
G1 X121.234 Y78.612 E1.5067
G1 X121.250 Y78.619 E1.5076
G1 X121.450 Y78.710 E1.5200
G1 X121.466 Y78.717 E1.5209
G1 X122.106 Y79.049 E1.5614
G1 X122.122 Y79.058 E1.5624
G1 X122.318 Y79.173 E1.5752
G1 X122.333 Y79.182 E1.5762
G1 X122.940 Y79.582 E1.6170
G1 X122.954 Y79.592 E1.6179
G1 X123.129 Y79.720 E1.6301
G1 X123.142 Y79.731 E1.6311
