; G-Code generated by Simplify3D(R) Version 4.0.0
; Nov 3, 2017 at 5:54:52 PM
; Settings Summary
;   processName,Process1
;   applyToModels,Botonera Movil V04.1
;   profileName,Anet A8 PLA 25%
;   profileVersion,2017-10-24 21:51:44
;   baseProfile,Default (modified)
;   printMaterial,
;   printQuality,
;   printExtruders,
;   extruderName,Primary Extruder
;   extruderToolheadNumber,0
;   extruderDiameter,0.4
;   extruderAutoWidth,0
;   extruderWidth,0.45
;   extrusionMultiplier,1
;   extruderUseRetract,1
;   extruderRetractionDistance,2
;   extruderExtraRestartDistance,0
;   extruderRetractionZLift,0
;   extruderRetractionSpeed,4800
;   extruderUseCoasting,0
;   extruderCoastingDistance,0.2
;   extruderUseWipe,0
;   extruderWipeDistance,5
;   primaryExtruder,0
;   layerHeight,0.3
;   topSolidLayers,3
;   bottomSolidLayers,3
;   perimeterOutlines,3
;   printPerimetersInsideOut,1
;   startPointOption,2
;   startPointOriginX,0
;   startPointOriginY,0
;   sequentialIslands,0
;   spiralVaseMode,0
;   firstLayerHeightPercentage,90
;   firstLayerWidthPercentage,100
;   firstLayerUnderspeed,0.35
;   useRaft,0
;   raftExtruder,0
;   raftTopLayers,3
;   raftBaseLayers,2
;   raftOffset,3
;   raftSeparationDistance,0.14
;   raftTopInfill,100
;   aboveRaftSpeedMultiplier,0.3
;   useSkirt,1
;   skirtExtruder,0
;   skirtLayers,1
;   skirtOutlines,3
;   skirtOffset,4
;   usePrimePillar,0
;   primePillarExtruder,999
;   primePillarWidth,12
;   primePillarLocation,7
;   primePillarSpeedMultiplier,1
;   useOozeShield,0
;   oozeShieldExtruder,999
;   oozeShieldOffset,2
;   oozeShieldOutlines,1
;   oozeShieldSidewallShape,1
;   oozeShieldSidewallAngle,30
;   oozeShieldSpeedMultiplier,1
;   infillExtruder,0
;   internalInfillPattern,Rectilinear
;   externalInfillPattern,Rectilinear
;   infillPercentage,25
;   outlineOverlapPercentage,25
;   infillExtrusionWidthPercentage,150
;   minInfillLength,5
;   infillLayerInterval,1
;   internalInfillAngles,0,60,-60
;   overlapInternalInfillAngles,0
;   externalInfillAngles,0,60,-60
;   generateSupport,1
;   supportExtruder,0
;   supportInfillPercentage,30
;   supportExtraInflation,0
;   supportBaseLayers,0
;   denseSupportExtruder,0
;   denseSupportLayers,0
;   denseSupportInfillPercentage,70
;   supportLayerInterval,1
;   supportHorizontalPartOffset,0.3
;   supportUpperSeparationLayers,1
;   supportLowerSeparationLayers,1
;   supportType,0
;   supportGridSpacing,4
;   maxOverhangAngle,45
;   supportAngles,0
;   temperatureName,Extrusor Principal,Cama Caliente
;   temperatureNumber,0,1
;   temperatureSetpointCount,1,1
;   temperatureSetpointLayers,1,1
;   temperatureSetpointTemperatures,200,60
;   temperatureStabilizeAtStartup,1,1
;   temperatureHeatedBed,0,1
;   temperatureRelayBetweenLayers,0,0
;   temperatureRelayBetweenLoops,0,0
;   fanLayers,1,2
;   fanSpeeds,0,100
;   blipFanToFullPower,0
;   adjustSpeedForCooling,1
;   minSpeedLayerTime,15
;   minCoolingSpeedSlowdown,20
;   increaseFanForCooling,0
;   minFanLayerTime,45
;   maxCoolingFanSpeed,100
;   increaseFanForBridging,0
;   bridgingFanSpeed,100
;   use5D,1
;   relativeEdistances,0
;   allowEaxisZeroing,1
;   independentExtruderAxes,0
;   includeM10123,0
;   stickySupport,1
;   applyToolheadOffsets,0
;   gcodeXoffset,0
;   gcodeYoffset,0
;   gcodeZoffset,0
;   overrideMachineDefinition,1
;   machineTypeOverride,0
;   strokeXoverride,220
;   strokeYoverride,220
;   strokeZoverride,240
;   originOffsetXoverride,0
;   originOffsetYoverride,0
;   originOffsetZoverride,0
;   homeXdirOverride,-1
;   homeYdirOverride,-1
;   homeZdirOverride,-1
;   flipXoverride,1
;   flipYoverride,-1
;   flipZoverride,1
;   toolheadOffsets,0,0|0,0|0,0|0,0|0,0|0,0
;   overrideFirmwareConfiguration,0
;   firmwareTypeOverride,RepRap (Marlin/Repetier/Sprinter)
;   GPXconfigOverride,r2
;   baudRateOverride,115200
;   overridePrinterModels,0
;   printerModelsOverride
;   startingGcode,G21; Trabajar con valores metricos,G90; actinvar posicionamiento absoluto,M82; trabajar con valores metricos en el extrusor,M107; empezar con ventilador de capa apagado.,G28 X0 Y0; Home del eje X e Y,G28 Z0; Home del eje Z,G92 E0; Poner a 0 el extrusor,G1 Z5; Levantar el extrusor antes de ir al centro, para que no roce con nada,M117 Imprimiendo; Mensaje que se muestra en pantalla,,,,,G28 ; home all axes
;   layerChangeGcode,
;   retractionGcode,
;   toolChangeGcode,
;   endingGcode,G10;,G92 Z0;,G1 Z5;,M107;,G1 X0 Y0; Mover ejes X e Y al 0,M107;,M104 S0 ; turn off extruder,M140 S0 ; turn off bed,M84 ; disable motors
;   exportFileFormat,gcode
;   celebration,0
;   celebrationSong,Random Song
;   postProcessing,
;   defaultSpeed,3600
;   outlineUnderspeed,0.4
;   solidInfillUnderspeed,0.6
;   supportUnderspeed,0.7
;   rapidXYspeed,4800
;   rapidZspeed,300
;   minBridgingArea,50
;   bridgingExtraInflation,0
;   bridgingExtrusionMultiplier,1
;   bridgingSpeedMultiplier,1
;   useFixedBridgingAngle,0
;   fixedBridgingAngle,0
;   applyBridgingToPerimeters,0
;   filamentDiameters,1.75|1.75|1.75|1.75|1.75|1.75
;   filamentPricesPerKg,46|46|46|46|46|46
;   filamentDensities,1.25|1.25|1.25|1.25|1.25|1.25
;   useMinPrintHeight,0
;   minPrintHeight,0
;   useMaxPrintHeight,0
;   maxPrintHeight,0
;   useDiaphragm,0
;   diaphragmLayerInterval,20
;   robustSlicing,1
;   mergeAllIntoSolid,0
;   onlyRetractWhenCrossingOutline,1
;   retractBetweenLayers,0
;   useRetractionMinTravel,1
;   retractionMinTravel,3
;   retractWhileWiping,0
;   onlyWipeOutlines,0
;   avoidCrossingOutline,1
;   maxMovementDetourFactor,3
;   toolChangeRetractionDistance,12
;   toolChangeExtraRestartDistance,-0.5
;   toolChangeRetractionSpeed,600
;   externalThinWallType,0
;   internalThinWallType,2
;   thinWallAllowedOverlapPercentage,25
;   singleExtrusionMinLength,1
;   singleExtrusionMinPrintingWidthPercentage,50
;   singleExtrusionMaxPrintingWidthPercentage,200
;   singleExtrusionEndpointExtension,0.2
;   horizontalSizeCompensation,0
G90
M82
M106 S0
M140 S60
M190 S60
M104 S200 T0
M109 S200 T0
G21; Trabajar con valores metricos
G90; actinvar posicionamiento absoluto
M82; trabajar con valores metricos en el extrusor
M107; empezar con ventilador de capa apagado.
G28 X0 Y0; Home del eje X e Y
G28 Z0; Home del eje Z
G92 E0; Poner a 0 el extrusor
G1 Z5; Levantar el extrusor antes de ir al centro
 para que no roce con nada
M117 Imprimiendo; Mensaje que se muestra en pantalla
G28 ; home all axes
G92 E0
G1 E-2.0000 F4800
G1 Z0.270 F300
; process Process1
; layer 1, Z = 0.270
T0
; tool H0.300 W0.450
; skirt
G1 X95.093 Y80.750 F4800
G1 E0.0000 F1440
G92 E0
G1 X95.245 Y80.583 E0.0127 F1260
G1 X95.264 Y80.563 E0.0142
G1 X95.787 Y80.041 E0.0557
G1 X95.808 Y80.022 E0.0573
G1 X95.975 Y79.870 E0.0700
G1 X95.997 Y79.852 E0.0715
G1 X96.566 Y79.387 E0.1128
G1 X96.588 Y79.370 E0.1144
G1 X96.772 Y79.235 E0.1272
G1 X96.795 Y79.219 E0.1288
G1 X97.416 Y78.808 E0.1706
G1 X97.442 Y78.792 E0.1722
G1 X97.651 Y78.669 E0.1859
G1 X97.678 Y78.654 E0.1876
G1 X98.327 Y78.318 E0.2286
G1 X98.352 Y78.306 E0.2302
G1 X98.559 Y78.211 E0.2430
G1 X98.585 Y78.200 E0.2446
G1 X99.268 Y77.929 E0.2858
G1 X99.297 Y77.918 E0.2875
G1 X99.532 Y77.840 E0.3014
G1 X99.561 Y77.831 E0.3031
G1 X100.274 Y77.634 E0.3446
G1 X100.303 Y77.626 E0.3463
G1 X100.542 Y77.574 E0.3600
G1 X100.571 Y77.568 E0.3617
G1 X101.299 Y77.449 E0.4031
G1 X101.329 Y77.445 E0.4048
G1 X101.575 Y77.418 E0.4187
G1 X101.606 Y77.416 E0.4204
G1 X102.285 Y77.379 E0.4586
G1 X102.300 Y77.379 E0.4595
G1 X102.423 Y77.375 E0.4664
G1 X102.438 Y77.375 E0.4672
G1 X117.560 Y77.375 E1.3160
G1 X117.575 Y77.375 E1.3168
G1 X117.696 Y77.378 E1.3236
G1 X117.711 Y77.379 E1.3244
G1 X118.380 Y77.414 E1.3620
G1 X118.410 Y77.417 E1.3637
G1 X118.654 Y77.443 E1.3775
G1 X118.684 Y77.447 E1.3792
G1 X119.410 Y77.565 E1.4205
G1 X119.440 Y77.570 E1.4222
G1 X119.679 Y77.622 E1.4359
G1 X119.708 Y77.629 E1.4376
G1 X120.421 Y77.825 E1.4791
G1 X120.451 Y77.834 E1.4808
G1 X120.685 Y77.912 E1.4947
G1 X120.714 Y77.923 E1.4964
G1 X121.404 Y78.195 E1.5380
G1 X121.430 Y78.206 E1.5396
G1 X121.642 Y78.302 E1.5527
G1 X121.667 Y78.315 E1.5543
G1 X122.321 Y78.654 E1.5956
G1 X122.347 Y78.668 E1.5973
G1 X122.555 Y78.790 E1.6108
G1 X122.580 Y78.806 E1.6125
G1 X123.193 Y79.210 E1.6537
G1 X123.216 Y79.226 E1.6552
G1 X123.398 Y79.360 E1.6679
G1 X123.420 Y79.377 E1.6695
G1 X123.990 Y79.840 E1.7107
G1 X124.011 Y79.858 E1.7123
G1 X124.179 Y80.009 E1.7250
G1 X124.199 Y80.029 E1.7265
G1 X124.724 Y80.550 E1.7681
G1 X124.744 Y80.570 E1.7696
G1 X124.897 Y80.739 E1.7824
G1 X124.916 Y80.760 E1.7840
G1 X125.391 Y81.336 E1.8259
G1 X125.407 Y81.358 E1.8275
G1 X125.540 Y81.535 E1.8399
G1 X125.555 Y81.557 E1.8414
G1 X125.968 Y82.170 E1.8829
G1 X125.982 Y82.192 E1.8843
G1 X126.091 Y82.372 E1.8961
G1 X126.104 Y82.394 E1.8976
G1 X126.460 Y83.045 E1.9392
G1 X126.472 Y83.069 E1.9407
G1 X126.567 Y83.265 E1.9529
G1 X126.578 Y83.289 E1.9544
G1 X126.870 Y83.970 E1.9960
G1 X126.879 Y83.994 E1.9974
G1 X126.951 Y84.183 E2.0088
G1 X126.959 Y84.207 E2.0102
G1 X127.189 Y84.911 E2.0518
G1 X127.197 Y84.936 E2.0533
G1 X127.253 Y85.140 E2.0651
G1 X127.259 Y85.165 E2.0666
G1 X127.423 Y85.886 E2.1081
G1 X127.428 Y85.910 E2.1095
G1 X127.464 Y86.109 E2.1208
G1 X127.468 Y86.133 E2.1222
G1 X127.568 Y86.874 E2.1642
G1 X127.571 Y86.899 E2.1656
G1 X127.590 Y87.105 E2.1771
G1 X127.591 Y87.130 E2.1786
G1 X127.622 Y87.818 E2.2172
G1 X127.622 Y87.830 E2.2179
G1 X127.625 Y87.932 E2.2236
G1 X127.625 Y87.944 E2.2243
G1 X127.625 Y132.051 E4.6999
G1 X127.625 Y132.063 E4.7006
G1 X127.623 Y132.165 E4.7063
G1 X127.622 Y132.177 E4.7070
G1 X127.592 Y132.864 E4.7455
G1 X127.590 Y132.889 E4.7469
G1 X127.572 Y133.091 E4.7583
G1 X127.569 Y133.116 E4.7597
G1 X127.470 Y133.856 E4.8016
G1 X127.466 Y133.881 E4.8030
G1 X127.429 Y134.082 E4.8145
G1 X127.424 Y134.107 E4.8160
G1 X127.259 Y134.834 E4.8578
G1 X127.253 Y134.859 E4.8593
G1 X127.197 Y135.063 E4.8711
G1 X127.189 Y135.088 E4.8726
G1 X126.959 Y135.792 E4.9142
G1 X126.951 Y135.816 E4.9156
G1 X126.879 Y136.005 E4.9269
G1 X126.870 Y136.029 E4.9284
G1 X126.578 Y136.710 E4.9699
G1 X126.567 Y136.734 E4.9715
G1 X126.472 Y136.930 E4.9837
G1 X126.460 Y136.954 E4.9852
G1 X126.107 Y137.600 E5.0265
G1 X126.094 Y137.622 E5.0279
G1 X125.986 Y137.800 E5.0396
G1 X125.972 Y137.822 E5.0411
G1 X125.558 Y138.438 E5.0827
G1 X125.542 Y138.460 E5.0843
G1 X125.410 Y138.638 E5.0967
G1 X125.393 Y138.659 E5.0982
G1 X124.922 Y139.232 E5.1399
G1 X124.903 Y139.254 E5.1414
G1 X124.750 Y139.422 E5.1542
G1 X124.731 Y139.443 E5.1558
G1 X124.206 Y139.965 E5.1974
G1 X124.186 Y139.984 E5.1989
G1 X124.018 Y140.135 E5.2116
G1 X123.997 Y140.153 E5.2132
G1 X123.432 Y140.613 E5.2540
G1 X123.411 Y140.629 E5.2556
G1 X123.232 Y140.761 E5.2680
G1 X123.209 Y140.777 E5.2696
G1 X122.587 Y141.190 E5.3115
G1 X122.561 Y141.206 E5.3132
G1 X122.345 Y141.333 E5.3273
G1 X122.318 Y141.348 E5.3290
G1 X121.662 Y141.687 E5.3704
G1 X121.637 Y141.699 E5.3720
G1 X121.431 Y141.792 E5.3847
G1 X121.405 Y141.803 E5.3862
G1 X120.723 Y142.073 E5.4274
G1 X120.694 Y142.084 E5.4292
G1 X120.459 Y142.163 E5.4431
G1 X120.430 Y142.171 E5.4448
G1 X119.717 Y142.368 E5.4863
G1 X119.688 Y142.375 E5.4880
G1 X119.449 Y142.427 E5.5017
G1 X119.420 Y142.433 E5.5034
G1 X118.700 Y142.550 E5.5443
G1 X118.670 Y142.554 E5.5460
G1 X118.431 Y142.580 E5.5595
G1 X118.401 Y142.583 E5.5612
G1 X117.723 Y142.621 E5.5993
G1 X117.707 Y142.621 E5.6002
G1 X117.580 Y142.625 E5.6073
G1 X117.564 Y142.625 E5.6082
G1 X102.437 Y142.625 E6.4572
G1 X102.422 Y142.625 E6.4581
G1 X102.296 Y142.621 E6.4652
G1 X102.281 Y142.621 E6.4660
G1 X101.607 Y142.584 E6.5039
G1 X101.577 Y142.581 E6.5056
G1 X101.336 Y142.555 E6.5192
G1 X101.306 Y142.551 E6.5209
G1 X100.586 Y142.434 E6.5618
G1 X100.557 Y142.428 E6.5635
G1 X100.320 Y142.376 E6.5771
G1 X100.291 Y142.369 E6.5788
G1 X99.579 Y142.174 E6.6202
G1 X99.549 Y142.165 E6.6219
G1 X99.314 Y142.087 E6.6359
G1 X99.286 Y142.076 E6.6376
G1 X98.603 Y141.807 E6.6788
G1 X98.577 Y141.796 E6.6803
G1 X98.371 Y141.702 E6.6930
G1 X98.346 Y141.690 E6.6946
G1 X97.686 Y141.351 E6.7363
G1 X97.659 Y141.336 E6.7380
G1 X97.443 Y141.209 E6.7521
G1 X97.416 Y141.192 E6.7538
G1 X96.797 Y140.782 E6.7955
G1 X96.775 Y140.766 E6.7970
G1 X96.594 Y140.633 E6.8097
G1 X96.572 Y140.616 E6.8112
G1 X96.003 Y140.153 E6.8524
G1 X95.982 Y140.135 E6.8539
G1 X95.814 Y139.984 E6.8666
G1 X95.794 Y139.965 E6.8682
G1 X95.269 Y139.443 E6.9097
G1 X95.250 Y139.422 E6.9113
G1 X95.097 Y139.254 E6.9241
G1 X95.078 Y139.233 E6.9257
G1 X94.611 Y138.664 E6.9670
G1 X94.594 Y138.643 E6.9685
G1 X94.464 Y138.469 E6.9807
G1 X94.449 Y138.447 E6.9822
G1 X94.037 Y137.836 E7.0235
G1 X94.023 Y137.814 E7.0250
G1 X93.914 Y137.635 E7.0368
G1 X93.901 Y137.612 E7.0382
G1 X93.545 Y136.962 E7.0798
G1 X93.532 Y136.938 E7.0813
G1 X93.437 Y136.742 E7.0936
G1 X93.426 Y136.718 E7.0951
G1 X93.133 Y136.037 E7.1367
G1 X93.124 Y136.014 E7.1381
G1 X93.053 Y135.824 E7.1494
G1 X93.044 Y135.800 E7.1509
G1 X92.813 Y135.096 E7.1925
G1 X92.806 Y135.071 E7.1939
G1 X92.749 Y134.868 E7.2058
G1 X92.743 Y134.843 E7.2072
G1 X92.578 Y134.117 E7.2490
G1 X92.573 Y134.092 E7.2504
G1 X92.536 Y133.892 E7.2618
G1 X92.532 Y133.867 E7.2632
G1 X92.432 Y133.127 E7.3052
G1 X92.429 Y133.101 E7.3066
G1 X92.410 Y132.896 E7.3182
G1 X92.409 Y132.870 E7.3196
G1 X92.378 Y132.182 E7.3583
G1 X92.378 Y132.170 E7.3590
G1 X92.375 Y132.068 E7.3647
G1 X92.375 Y132.056 E7.3654
G1 X92.375 Y87.949 E9.8409
G1 X92.375 Y87.937 E9.8416
G1 X92.377 Y87.835 E9.8473
G1 X92.378 Y87.823 E9.8480
G1 X92.408 Y87.137 E9.8866
G1 X92.410 Y87.112 E9.8880
G1 X92.428 Y86.910 E9.8993
G1 X92.431 Y86.885 E9.9007
G1 X92.530 Y86.144 E9.9427
G1 X92.534 Y86.119 E9.9441
G1 X92.570 Y85.917 E9.9557
G1 X92.575 Y85.892 E9.9571
G1 X92.739 Y85.171 E9.9986
G1 X92.746 Y85.146 E10.0001
G1 X92.801 Y84.944 E10.0118
G1 X92.809 Y84.919 E10.0132
G1 X93.038 Y84.215 E10.0548
G1 X93.046 Y84.192 E10.0562
G1 X93.118 Y84.002 E10.0676
G1 X93.127 Y83.979 E10.0690
G1 X93.419 Y83.297 E10.1106
G1 X93.430 Y83.272 E10.1121
G1 X93.526 Y83.074 E10.1245
G1 X93.538 Y83.050 E10.1260
G1 X93.899 Y82.390 E10.1682
G1 X93.912 Y82.368 E10.1697
G1 X94.021 Y82.188 E10.1815
G1 X94.035 Y82.166 E10.1829
G1 X94.444 Y81.558 E10.2241
G1 X94.460 Y81.536 E10.2256
G1 X94.591 Y81.360 E10.2379
G1 X94.607 Y81.339 E10.2394
G1 X95.075 Y80.771 E10.2807
G1 X95.093 Y80.750 E10.2823
G1 X95.430 Y81.048 F4800
G92 E0
G1 X95.574 Y80.890 E0.0120 F1260
G1 X95.585 Y80.878 E0.0130
G1 X96.101 Y80.364 E0.0538
G1 X96.113 Y80.352 E0.0548
G1 X96.273 Y80.208 E0.0668
G1 X96.285 Y80.197 E0.0678
G1 X96.846 Y79.740 E0.1084
G1 X96.860 Y79.729 E0.1094
G1 X97.035 Y79.601 E0.1215
G1 X97.048 Y79.591 E0.1225
G1 X97.660 Y79.186 E0.1636
G1 X97.675 Y79.177 E0.1646
G1 X97.874 Y79.060 E0.1776
G1 X97.890 Y79.051 E0.1786
G1 X98.529 Y78.720 E0.2190
G1 X98.544 Y78.713 E0.2200
G1 X98.741 Y78.623 E0.2321
G1 X98.757 Y78.616 E0.2331
G1 X99.429 Y78.349 E0.2736
G1 X99.446 Y78.343 E0.2747
G1 X99.669 Y78.268 E0.2879
G1 X99.686 Y78.263 E0.2889
G1 X100.388 Y78.069 E0.3297
G1 X100.405 Y78.065 E0.3308
G1 X100.632 Y78.015 E0.3438
G1 X100.650 Y78.011 E0.3448
G1 X101.366 Y77.894 E0.3855
G1 X101.384 Y77.892 E0.3865
G1 X101.618 Y77.866 E0.3998
G1 X101.636 Y77.865 E0.4008
G1 X102.306 Y77.829 E0.4385
G1 X102.315 Y77.828 E0.4390
G1 X102.432 Y77.825 E0.4455
G1 X102.441 Y77.825 E0.4460
G1 X117.557 Y77.825 E1.2945
G1 X117.566 Y77.825 E1.2950
G1 X117.681 Y77.828 E1.3014
G1 X117.690 Y77.829 E1.3019
G1 X118.350 Y77.864 E1.3390
G1 X118.368 Y77.865 E1.3400
G1 X118.600 Y77.890 E1.3531
G1 X118.618 Y77.892 E1.3541
G1 X119.332 Y78.008 E1.3947
G1 X119.350 Y78.011 E1.3958
G1 X119.577 Y78.061 E1.4088
G1 X119.595 Y78.065 E1.4098
G1 X120.296 Y78.257 E1.4506
G1 X120.314 Y78.263 E1.4517
G1 X120.537 Y78.337 E1.4649
G1 X120.555 Y78.343 E1.4659
G1 X121.233 Y78.611 E1.5069
G1 X121.249 Y78.618 E1.5078
G1 X121.450 Y78.710 E1.5202
G1 X121.465 Y78.717 E1.5212
G1 X122.109 Y79.051 E1.5619
G1 X122.125 Y79.059 E1.5629
G1 X122.322 Y79.175 E1.5757
G1 X122.337 Y79.185 E1.5767
G1 X122.940 Y79.583 E1.6173
G1 X122.954 Y79.592 E1.6182
G1 X123.127 Y79.719 E1.6303
G1 X123.140 Y79.730 E1.6312
